styles/2/Numix/96/places/default-folder-copy.svg

<?xml version="1.0" encoding="UTF-8" standalone="no"?>
<svg
   xmlns:dc="http://purl.org/dc/elements/1.1/"
   xmlns:cc="http://creativecommons.org/ns#"
   xmlns:rdf="http://www.w3.org/1999/02/22-rdf-syntax-ns#"
   xmlns:svg="http://www.w3.org/2000/svg"
   xmlns="http://www.w3.org/2000/svg"
   xmlns:sodipodi="http://sodipodi.sourceforge.net/DTD/sodipodi-0.dtd"
   xmlns:inkscape="http://www.inkscape.org/namespaces/inkscape"
   width="96px"
   height="96px"
   viewBox="0 0 96 96"
   version="1.1"
   id="svg20770"
   inkscape:version="0.91 r"
   sodipodi:docname="default-folder-copy.svg">
  <metadata
     id="metadata20787">
    <rdf:RDF>
      <cc:Work
         rdf:about="">
        <dc:format>image/svg+xml</dc:format>
        <dc:type
           rdf:resource="http://purl.org/dc/dcmitype/StillImage" />
      </cc:Work>
    </rdf:RDF>
  </metadata>
  <defs
     id="defs20785" />
  <sodipodi:namedview
     pagecolor="#ffffff"
     bordercolor="#666666"
     borderopacity="1"
     objecttolerance="10"
     gridtolerance="10"
     guidetolerance="10"
     inkscape:pageopacity="0"
     inkscape:pageshadow="2"
     inkscape:window-width="640"
     inkscape:window-height="480"
     id="namedview20783" />
  <g
     id="surface1">
    <path
       style=" stroke:none;fill-rule:nonzero;fill:rgb(91.372549%,69.019608%,50.196078%);fill-opacity:1;"
       d="M 10 12 C 8 12 6 14 6 16 L 4 16 C 2 16 -0.0117188 17.898438 0 20 L 0 50 C 0 52.242188 2.074219 54 4.375 54 L 51.625 54 C 54 54 56 52 56 50 L 56 24 C 56 22 54 20 52 20 L 48 20 L 48 16 C 48 14 46 12 44 12 Z M 10 12 "
       id="path20773" />
    <path
       style=" stroke:none;fill-rule:nonzero;fill:rgb(0%,0%,0%);fill-opacity:0.321569;"
       d="M 10 12 C 8 12 6 14 6 16 L 4 16 C 2 16 -0.0117188 17.898438 0 20 L 0 50 C 0 52.242188 2.074219 54 4.375 54 L 51.625 54 C 54 54 56 52 56 50 L 56 24 C 56 22 54 20 52 20 L 48 20 L 48 16 C 48 14 46 12 44 12 Z M 4 18 L 32 18 C 33.015625 18 34 18.988281 34 20 L 34 22 L 52 22 C 53.082031 22 54 22.945312 54 24 L 54 50 C 54 51.109375 53.097656 52 52 52 L 4 52 C 2.972656 52 2 51.109375 2 50 L 2 20 C 2 18.914062 2.957031 18 4 18 Z M 4 18 "
       id="path20775" />
    <path
       style=" stroke:none;fill-rule:nonzero;fill:rgb(0%,0%,0%);fill-opacity:0.101961;"
       d="M 10 12 C 8.25 12 6.472656 13.527344 6.0625 15.25 C 6.003906 15.496094 6 15.75 6 16 L 4 16 C 2 16 -0.0117188 17.898438 0 20 L 0 50 C 0 52.242188 2.074219 54 4.375 54 L 51.625 54 C 52.515625 54 53.363281 53.707031 54.0625 53.25 C 54.996094 52.640625 55.699219 51.734375 55.9375 50.75 C 55.996094 50.503906 56 50.25 56 50 L 56 24 C 56 23.5 55.90625 23.03125 55.6875 22.5625 C 55.03125 21.15625 53.5 20 52 20 L 48 20 L 48 16 C 48 14 46 12 44 12 Z M 10 12 "
       id="path20777" />
    <path
       style=" stroke:none;fill-rule:nonzero;fill:rgb(91.372549%,69.019608%,50.196078%);fill-opacity:1;"
       d="M 50 42 C 48 42 46 44 46 46 L 44 46 C 42 46 39.988281 47.898438 40 50 L 40 80 C 40 82.242188 42.074219 84 44.375 84 L 91.625 84 C 94 84 96 82 96 80 L 96 54 C 96 52 94 50 92 50 L 88 50 L 88 46 C 88 44 86 42 84 42 Z M 50 42 "
       id="path20779" />
    <path
       style=" stroke:none;fill-rule:nonzero;fill:rgb(0%,0%,0%);fill-opacity:0.321569;"
       d="M 50 42 C 48 42 46 44 46 46 L 44 46 C 42 46 39.988281 47.898438 40 50 L 40 80 C 40 82.242188 42.074219 84 44.375 84 L 91.625 84 C 94 84 96 82 96 80 L 96 54 C 96 52 94 50 92 50 L 88 50 L 88 46 C 88 44 86 42 84 42 Z M 44 48 L 72 48 C 73.015625 48 74 48.988281 74 50 L 74 52 L 92 52 C 93.082031 52 94 52.945312 94 54 L 94 80 C 94 81.109375 93.097656 82 92 82 L 44 82 C 42.972656 82 42 81.109375 42 80 L 42 50 C 42 48.914062 42.957031 48 44 48 Z M 44 48 "
       id="path20781" />
  </g>
</svg>

<svg xmlns="http://www.w3.org/2000/svg" viewBox="0 0 96 96">
 <g>
  <path d="m 10 12 c -2 0 -4 2 -4 4 l -2 0 c -2 0 -4.01 1.898 -4 4 l 0 30 c 0 2.242 2.074 4 4.375 4 l 47.25 0 c 2.375 0 4.375 -2 4.375 -4 l 0 -26 c 0 -2 -2 -4 -4 -4 l -4 0 l 0 -4 c 0 -2 -2 -4 -4 -4 m -34 0" style="fill:#e8b07f;fill-opacity:1;stroke:none;fill-rule:nonzero"/>
  <path d="m 10 12 c -2 0 -4 2 -4 4 l -2 0 c -2 0 -4.01 1.898 -4 4 l 0 30 c 0 2.242 2.074 4 4.375 4 l 47.25 0 c 2.375 0 4.375 -2 4.375 -4 l 0 -26 c 0 -2 -2 -4 -4 -4 l -4 0 l 0 -4 c 0 -2 -2 -4 -4 -4 m -40 6 l 28 0 c 1.016 0 2 0.988 2 2 l 0 2 l 18 0 c 1.082 0 2 0.945 2 2 l 0 26 c 0 1.109 -0.902 2 -2 2 l -48 0 c -1.027 0 -2 -0.891 -2 -2 l 0 -30 c 0 -1.086 0.957 -2 2 -2 m 0 0" style="fill:#000;fill-opacity:0.322;stroke:none;fill-rule:nonzero"/>
  <path d="m 10 12 c -1.75 0 -3.527 1.527 -3.938 3.25 c -0.059 0.246 -0.063 0.5 -0.063 0.75 l -2 0 c -2 0 -4.01 1.898 -4 4 l 0 30 c 0 2.242 2.074 4 4.375 4 l 47.25 0 c 0.891 0 1.738 -0.293 2.438 -0.75 c 0.934 -0.609 1.637 -1.516 1.875 -2.5 c 0.059 -0.246 0.063 -0.5 0.063 -0.75 l 0 -26 c 0 -0.5 -0.094 -0.969 -0.313 -1.438 c -0.656 -1.406 -2.188 -2.563 -3.688 -2.563 l -4 0 l 0 -4 c 0 -2 -2 -4 -4 -4 m -34 0" style="fill:#000;fill-opacity:0.102;stroke:none;fill-rule:nonzero"/>
  <path d="m 50 42 c -2 0 -4 2 -4 4 l -2 0 c -2 0 -4.01 1.898 -4 4 l 0 30 c 0 2.242 2.074 4 4.375 4 l 47.25 0 c 2.375 0 4.375 -2 4.375 -4 l 0 -26 c 0 -2 -2 -4 -4 -4 l -4 0 l 0 -4 c 0 -2 -2 -4 -4 -4 m -34 0" style="fill:#e8b07f;fill-opacity:1;stroke:none;fill-rule:nonzero"/>
  <path d="m 50 42 c -2 0 -4 2 -4 4 l -2 0 c -2 0 -4.01 1.898 -4 4 l 0 30 c 0 2.242 2.074 4 4.375 4 l 47.25 0 c 2.375 0 4.375 -2 4.375 -4 l 0 -26 c 0 -2 -2 -4 -4 -4 l -4 0 l 0 -4 c 0 -2 -2 -4 -4 -4 m -40 6 l 28 0 c 1.016 0 2 0.988 2 2 l 0 2 l 18 0 c 1.082 0 2 0.945 2 2 l 0 26 c 0 1.109 -0.902 2 -2 2 l -48 0 c -1.027 0 -2 -0.891 -2 -2 l 0 -30 c 0 -1.086 0.957 -2 2 -2 m 0 0" style="fill:#000;fill-opacity:0.322;stroke:none;fill-rule:nonzero"/>
 </g>
</svg>
